packages/react-icons/icons/thumb-up-filled.svg

<svg width="24" height="24" viewBox="0 0 24 24" xmlns="http://www.w3.org/2000/svg">
<path fill-rule="evenodd" clip-rule="evenodd" d="M7.40901 8.29186L12.949 2.75186C13.529 2.16186 14.469 2.16186 15.059 2.74186C15.419 3.10186 15.569 3.61186 15.469 4.11186L14.519 8.69186H20.169C22.319 8.69186 23.769 10.8919 22.929 12.8719L19.669 20.4819C19.349 21.2119 18.629 21.6919 17.829 21.6919H8.82901C7.72901 21.6919 6.82901 20.7919 6.82901 19.6919V9.70186C6.82901 9.17186 7.03901 8.66186 7.40901 8.29186ZM4.82901 19.6919C4.82901 20.7919 3.92901 21.6919 2.82901 21.6919C1.72901 21.6919 0.82901 20.7919 0.82901 19.6919V11.6919C0.82901 10.5919 1.72901 9.69186 2.82901 9.69186C3.92901 9.69186 4.82901 10.5919 4.82901 11.6919V19.6919Z" />
</svg>

<svg xmlns="http://www.w3.org/2000/svg" width="24" height="24"><path fill-rule="evenodd" d="m7.409 8.292 5.54-5.54c.58-.59 1.52-.59 2.11-.01.36.36.51.87.41 1.37l-.95 4.58h5.65c2.15 0 3.6 2.2 2.76 4.18l-3.26 7.61c-.32.73-1.04 1.21-1.84 1.21h-9c-1.1 0-2-.9-2-2v-9.99c0-.53.21-1.04.58-1.41Zm-2.58 11.4c0 1.1-.9 2-2 2s-2-.9-2-2v-8c0-1.1.9-2 2-2s2 .9 2 2v8Z" clip-rule="evenodd"/></svg>
